X:996
T:The knocking hornpipe
R:Hornpipe
B:Kerr's Second p 45
S:Kerr's Second p 45
Z:Transcription, chords:Mike Long
M:C|
L:1/8
K:G
(Bc)|\
"G"dedB "C"c2(Bc)|"G"dedB "D"A2(Bc)|"G"dedB "C"cBcA|"G"G2"D"A2 "G"B2(Bc)|\
"G"dedB "C"c2(Bc)|
"G"dedB "D"A2(Bc)|"G"dedB "C"cBcA|"G"G2[B2g2] [B2g2]:|\
|:(GB)|\
"G"d2d2 "C"cBce|"G"d2 (3G,G,G, G,2 (Bc)|
"G"dedB "C"cBcA|"G"G2"D"A2 "G"B2(Bc)|\
"G"d2d2 "C"cBce|"G"d2 (3G,G,G, G,2 (Bc)|"G"dedB "C"cBcA|"G"G2[B2g2] [B2g2]:|
